src-assets/img/nous-contacter-rouge.svg

<svg width="42" height="44" viewBox="0 0 42 44" fill="none" xmlns="http://www.w3.org/2000/svg">
<g id="enveloppe">
<path id="Vector" d="M28.3278 11.9266L13.672 11.9266C12.9891 11.9266 12.9873 12.9862 13.672 12.9862L28.3278 12.9862C29.0107 12.9862 29.0125 11.9266 28.3278 11.9266Z" fill="#B81734"/>
<path id="Vector_2" d="M28.3278 16.3396L13.672 16.3396C12.9891 16.3396 12.9873 17.3991 13.672 17.3991L28.3278 17.3991C29.0107 17.3991 29.0125 16.3396 28.3278 16.3396Z" fill="#B81734"/>
<path id="Vector_3" d="M20.9999 20.7542L13.672 20.7542C12.9891 20.7542 12.9873 21.8137 13.672 21.8137L20.9999 21.8137C21.6828 21.8137 21.6846 20.7542 20.9999 20.7542Z" fill="#B81734"/>
<path id="Vector_4" d="M0.0249023 17.1306C0.0249023 23.8303 0.0249023 30.53 0.0249023 37.2296L0.0249023 41.2487C0.0249023 42.5696 0.41235 43.8816 2.02052 43.9611C3.79323 44.0476 5.59247 43.9611 7.36694 43.9611C15.6095 43.9611 23.852 43.9611 32.0946 43.9611L39.6047 43.9611C40.8484 43.9611 41.9152 43.3236 41.9807 41.9551C42.0196 41.1481 41.9807 40.3287 41.9807 39.5217L41.9807 17.1324C41.9807 16.4507 40.9192 16.449 40.9192 17.1324L40.9192 40.855C40.9192 41.6761 41.1067 42.7886 39.9585 42.9034C38.0956 43.087 36.1212 42.9034 34.2512 42.9034C26.2369 42.9034 18.2208 42.9034 10.2065 42.9034L2.5725 42.9034C1.81707 42.9034 1.14302 42.7833 1.0864 41.8244C1.02979 40.8656 1.0864 39.8979 1.0864 38.9443C1.0864 31.8438 1.0864 24.7432 1.0864 17.6445L1.0864 17.1324C1.0864 16.4507 0.0249023 16.449 0.0249023 17.1324L0.0249023 17.1306Z" fill="#B81734"/>
<path id="Vector_5" d="M41.8213 16.7562C40.1689 15.3735 38.5165 13.9909 36.8641 12.6082C36.344 12.1738 35.5885 12.919 36.114 13.3569C37.7664 14.7396 39.4188 16.1223 41.0712 17.5049C41.5913 17.9393 42.3468 17.1942 41.8213 16.7562Z" fill="#B81734"/>
<path id="Vector_6" d="M5.141 12.6029C3.48683 13.9874 1.83266 15.3718 0.176723 16.7562C-0.34695 17.1942 0.406715 17.9411 0.92685 17.505C2.58102 16.1205 4.23519 14.7361 5.89113 13.3516C6.4148 12.9137 5.66114 12.1668 5.141 12.6029Z" fill="#B81734"/>
<path id="Vector_7" d="M13.7303 6.79505C15.7029 5.14397 17.6755 3.49289 19.6499 1.8418C19.8993 1.63343 20.1506 1.35443 20.4319 1.18843C21.1254 0.775223 21.5464 1.16901 22.0259 1.56986C23.1688 2.52519 24.3099 3.48229 25.4528 4.43762C26.3922 5.22343 27.3316 6.00924 28.271 6.79505C28.7912 7.23122 29.5466 6.48426 29.0212 6.04632C26.9159 4.28576 24.8123 2.52343 22.707 0.762861C21.6897 -0.0882844 20.6318 -0.328442 19.5207 0.573914C18.4097 1.47627 17.2615 2.46515 16.1328 3.40989C15.0819 4.28929 14.0328 5.16869 12.9819 6.04632C12.4582 6.48426 13.2119 7.23122 13.732 6.79505L13.7303 6.79505Z" fill="#B81734"/>
<path id="Vector_8" d="M10.8876 37.6553C14.3534 35.3985 17.821 33.1417 21.2868 30.8867L37.8815 20.0849C39.1589 19.2532 40.438 18.4215 41.7153 17.5898C42.285 17.2189 41.7542 16.3007 41.1793 16.675C37.7135 18.9318 34.2459 21.1886 30.7801 23.4436C25.2479 27.0442 19.7175 30.6448 14.1853 34.2454C12.908 35.0771 11.6289 35.9088 10.3515 36.7405C9.78188 37.1114 10.3126 38.0296 10.8876 37.6553Z" fill="#B81734"/>
<path id="Vector_9" d="M0.180387 17.505C3.77179 20.5105 7.3632 23.5142 10.9546 26.5197C11.4747 26.9559 11.9966 27.3903 12.5168 27.8264C13.0369 28.2626 13.7924 27.5156 13.2669 27.0777C9.6755 24.0722 6.08409 21.0685 2.49269 18.063C1.97255 17.6268 1.45065 17.1924 0.930514 16.7562C0.410379 16.3201 -0.345055 17.067 0.180387 17.505Z" fill="#B81734"/>
<path id="Vector_10" d="M36.2323 37.2173C34.2862 37.2685 32.3401 37.3197 30.394 37.3709C29.7129 37.3885 29.7093 38.4481 30.394 38.4304C32.3401 38.3792 34.2862 38.328 36.2323 38.2768C36.9134 38.2591 36.9169 37.1996 36.2323 37.2173Z" fill="#B81734"/>
<path id="Vector_11" d="M6.04685 21.284L6.04685 8.22898C6.04685 8.01178 5.90886 7.18359 6.04685 7.00347C6.25207 6.73683 7.83725 6.94873 8.17339 6.94873L34.587 6.94873C34.9126 6.94873 35.4256 6.84631 35.7388 6.94873C36.0094 7.03702 35.9581 7.00171 35.9581 7.35841L35.9581 20.3569C35.9581 21.0385 37.0196 21.0403 37.0196 20.3569L37.0196 8.18836C37.0196 7.26835 37.2001 6.00576 35.9316 5.89098C35.0806 5.81328 34.1872 5.89098 33.3327 5.89098L9.53742 5.89098C8.43346 5.89098 7.3118 5.83447 6.20785 5.89098C5.10389 5.94749 4.98535 6.69974 4.98535 7.57914L4.98535 21.284C4.98535 21.9656 6.04685 21.9674 6.04685 21.284Z" fill="#B81734"/>
</g>
</svg>

<svg width="42" height="44" viewBox="0 0 42 44" fill="none" xmlns="http://www.w3.org/2000/svg"><g fill="#B81734"><path d="M28.328 11.927H13.672c-.683 0-.685 1.06 0 1.06h14.656c.683 0 .684-1.06 0-1.06zm0 4.413H13.672c-.683 0-.685 1.06 0 1.06h14.656c.683 0 .684-1.06 0-1.06zM21 20.754h-7.328c-.683 0-.685 1.06 0 1.06H21c.683 0 .685-1.06 0-1.06z"/><path d="M.025 17.13v24.12c0 1.32.387 2.633 1.996 2.712 1.772.087 3.571 0 5.346 0h32.238c1.243 0 2.31-.637 2.376-2.006.039-.807 0-1.626 0-2.433v-22.39c0-.681-1.062-.683-1.062 0v23.723c0 .821.188 1.934-.96 2.048-1.863.184-3.838 0-5.708 0H2.572c-.755 0-1.429-.12-1.486-1.079-.056-.958 0-1.926 0-2.88V17.132c0-.681-1.061-.683-1.061 0v-.001z"/><path d="M41.821 16.756l-4.957-4.148c-.52-.434-1.275.311-.75.749l4.957 4.148c.52.434 1.276-.31.75-.749zm-36.68-4.153c-1.654 1.384-3.308 2.769-4.964 4.153-.524.438.23 1.185.75.749 1.654-1.384 3.308-2.769 4.964-4.153.524-.438-.23-1.185-.75-.75zm8.589-5.808c1.973-1.651 3.945-3.302 5.92-4.953.25-.209.5-.488.782-.654.693-.413 1.114-.019 1.594.382 1.143.955 2.284 1.912 3.427 2.868l2.818 2.357c.52.436 1.276-.31.75-.749L22.707.763c-1.017-.851-2.075-1.091-3.186-.19-1.111.903-2.26 1.892-3.388 2.837-1.051.88-2.1 1.759-3.151 2.636-.524.438.23 1.185.75.749h-.002z"/><path d="M10.888 37.655c3.465-2.257 6.933-4.513 10.399-6.768l16.595-10.802 3.833-2.495c.57-.371.04-1.29-.536-.915-3.465 2.257-6.933 4.514-10.399 6.769L14.185 34.245l-3.834 2.495c-.57.371-.038 1.29.537.915zM.18 17.505l10.775 9.015 1.562 1.306c.52.437 1.275-.31.75-.748L2.493 18.063c-.52-.436-1.042-.87-1.562-1.307-.52-.436-1.276.311-.75.749zm36.052 19.712l-5.838.154c-.681.017-.685 1.077 0 1.06l5.838-.154c.681-.018.685-1.077 0-1.06z"/><path d="M6.047 21.284V8.229c0-.217-.138-1.045 0-1.226.205-.266 1.79-.054 2.126-.054h26.414c.326 0 .839-.103 1.152 0 .27.088.22.053.22.41v12.998c0 .681 1.06.683 1.06 0V8.188c0-.92.181-2.182-1.087-2.297-.851-.078-1.745 0-2.6 0H9.538c-1.104 0-2.225-.057-3.33 0-1.103.056-1.222.809-1.222 1.688v13.705c0 .682 1.062.683 1.062 0z"/></g></svg>
